src/assets/search-icon.svg

<svg width="22" height="22" viewBox="0 0 22 22" fill="none" xmlns="http://www.w3.org/2000/svg">
<path d="M14.8027 12.8047C15.4473 11.7906 15.8254 10.5875 15.8254 9.29414C15.8254 5.68047 12.8992 2.75 9.28984 2.75C5.67617 2.75 2.75 5.68047 2.75 9.29414C2.75 12.9078 5.67617 15.8383 9.28555 15.8383C10.5961 15.8383 11.8164 15.4516 12.8391 14.7898L13.1355 14.5836L17.802 19.25L19.25 17.7762L14.5879 13.1098L14.8027 12.8047ZM12.9508 5.6375C13.9262 6.61289 14.4633 7.91055 14.4633 9.28984C14.4633 10.6691 13.9262 11.9668 12.9508 12.9422C11.9754 13.9176 10.6777 14.4547 9.29844 14.4547C7.91914 14.4547 6.62148 13.9176 5.64609 12.9422C4.6707 11.9668 4.13359 10.6691 4.13359 9.28984C4.13359 7.91055 4.6707 6.61289 5.64609 5.6375C6.62148 4.66211 7.91914 4.125 9.29844 4.125C10.6777 4.125 11.9754 4.66211 12.9508 5.6375Z" fill="currentColor"/>
</svg>

<svg xmlns="http://www.w3.org/2000/svg" width="22" height="22" fill="none" viewBox="0 0 22 22">
    <path fill="currentColor" d="M14.803 12.805A6.54 6.54 0 0 0 9.29 2.75a6.541 6.541 0 0 0-6.54 6.544 6.54 6.54 0 0 0 10.09 5.496l.296-.206 4.666 4.666 1.448-1.474-4.662-4.666.215-.305ZM12.95 5.638a5.132 5.132 0 0 1 1.512 3.652c0 1.38-.537 2.677-1.512 3.652a5.132 5.132 0 0 1-3.653 1.513 5.132 5.132 0 0 1-3.652-1.513A5.132 5.132 0 0 1 4.134 9.29c0-1.38.537-2.677 1.512-3.652a5.132 5.132 0 0 1 3.652-1.513c1.38 0 2.677.537 3.653 1.513Z"/>
</svg>
